assets/icons/qvision/settings_input_hdmi.svg

<svg xmlns="http://www.w3.org/2000/svg" height="24" viewBox="0 0 24 24" width="24"><path d="M0 0h24v24H0z" fill="none"/><path d="M18 7V4c0-1.1-.9-2-2-2H8c-1.1 0-2 .9-2 2v3H5v6l3 6v3h8v-3l3-6V7h-1zM8 4h8v3h-2V5h-1v2h-2V5h-1v2H8V4z"/></svg>

<svg width="24" height="24" viewBox="0 0 24 24" fill="none" xmlns="http://www.w3.org/2000/svg">
<g clip-path="url(#clip0_147_4726)">
<path d="M18 7V4C18 2.9 17.1 2 16 2H8C6.9 2 6 2.9 6 4V7H5V13L8 19V22H16V19L19 13V7H18ZM8 4H16V7H14V5H13V7H11V5H10V7H8V4Z" fill="#323232"/>
</g>
<defs>
<clipPath id="clip0_147_4726">
<rect width="24" height="24" fill="white"/>
</clipPath>
</defs>
</svg>
